img/SEARCH/card-list/address.svg

<svg width="18" height="18" viewBox="0 0 18 18" fill="none" xmlns="http://www.w3.org/2000/svg">
<path d="M15.7499 8.12392V14.625C15.7498 14.8289 15.6945 15.0289 15.59 15.204C15.4855 15.3791 15.3356 15.5226 15.1562 15.6194C14.9936 15.7074 14.8113 15.7523 14.6265 15.7499H11.2475C11.0983 15.7499 10.9552 15.6907 10.8497 15.5852C10.7442 15.4797 10.685 15.3366 10.685 15.1874V11.8119C10.685 11.6628 10.6257 11.5197 10.5202 11.4142C10.4147 11.3087 10.2716 11.2494 10.1225 11.2494H7.87245C7.72327 11.2494 7.5802 11.3087 7.47471 11.4142C7.36922 11.5197 7.30995 11.6628 7.30995 11.8119V15.1874C7.30995 15.3366 7.25069 15.4797 7.1452 15.5852C7.03971 15.6907 6.89664 15.7499 6.74745 15.7499H3.37506C3.21557 15.7503 3.05783 15.7167 2.91242 15.6511C2.76701 15.5856 2.63729 15.4898 2.53194 15.37C2.347 15.1562 2.24669 14.882 2.24992 14.5993V8.12385C2.25004 7.96711 2.28285 7.81212 2.34625 7.66877C2.40965 7.52543 2.50226 7.39688 2.61814 7.29135L8.24265 2.17731C8.44925 1.98806 8.71925 1.88308 8.99943 1.88306C9.27961 1.88303 9.54963 1.98796 9.75627 2.17717L15.3818 7.29142C15.4976 7.39697 15.5902 7.52552 15.6536 7.66886C15.717 7.81221 15.7498 7.96719 15.7499 8.12392Z" fill="black"/>
</svg>

<svg width="18" height="18" viewBox="0 0 18 18" fill="none" xmlns="http://www.w3.org/2000/svg"><path d="M15.75 8.124v6.501a1.13 1.13 0 01-.594.994 1.083 1.083 0 01-.53.13h-3.378a.563.563 0 01-.563-.562v-3.375a.563.563 0 00-.563-.563h-2.25a.562.562 0 00-.562.563v3.375a.563.563 0 01-.563.563H3.375a1.118 1.118 0 01-.843-.38 1.158 1.158 0 01-.282-.77V8.123a1.127 1.127 0 01.368-.833l5.625-5.114a1.12 1.12 0 011.513 0l5.626 5.114a1.128 1.128 0 01.368.833z" fill="#000"/></svg>
